assets/icons/mail/open.svg

<?xml version="1.0" encoding="UTF-8" standalone="no"?>
<svg
   viewBox="0 0 24 24"
   height="24"
   width="24"
   version="1.1"
   id="svg4"
   sodipodi:docname="read.svg"
   inkscape:version="1.2 (1:1.2.1+202207142221+cd75a1ee6d)"
   xmlns:inkscape="http://www.inkscape.org/namespaces/inkscape"
   xmlns:sodipodi="http://sodipodi.sourceforge.net/DTD/sodipodi-0.dtd"
   xmlns="http://www.w3.org/2000/svg"
   xmlns:svg="http://www.w3.org/2000/svg">
  <defs
     id="defs8" />
  <sodipodi:namedview
     id="namedview6"
     pagecolor="#ffffff"
     bordercolor="#666666"
     borderopacity="1.0"
     inkscape:pageshadow="2"
     inkscape:pageopacity="0.0"
     inkscape:pagecheckerboard="0"
     showgrid="true"
     inkscape:snap-page="true"
     inkscape:zoom="22.627417"
     inkscape:cx="14.274718"
     inkscape:cy="6.363961"
     inkscape:window-width="1920"
     inkscape:window-height="1043"
     inkscape:window-x="0"
     inkscape:window-y="0"
     inkscape:window-maximized="1"
     inkscape:current-layer="svg4"
     inkscape:showpageshadow="2"
     inkscape:deskcolor="#d1d1d1">
    <inkscape:grid
       type="xygrid"
       id="grid6" />
  </sodipodi:namedview>
  <path
     id="path1048"
     style="fill:#808080;stroke-width:1"
     d="M 7.7871094 3 C 7.1101671 3.00559 6.5365043 3.0481532 6.0273438 3.3027344 C 5.6879029 3.4724546 5.3973374 3.76517 5.2304688 4.140625 C 5.0635994 4.51608 5 4.9583364 5 5.5 L 5 6 C 4.9305158 6.0000406 4.8544944 5.9994445 4.7871094 6 C 4.1101671 6.00559 3.5365043 6.0481534 3.0273438 6.3027344 C 2.6879029 6.4724546 2.3973374 6.76517 2.2304688 7.140625 C 2.0635994 7.51608 2 7.9583364 2 8.5 L 2 18.5 C 2 19.041662 2.0635992 19.483919 2.2304688 19.859375 C 2.3973374 20.234831 2.6879029 20.527545 3.0273438 20.697266 C 3.5365043 20.951847 4.1101671 20.9944 4.7871094 21 C 5.0127565 21.0019 5.2500013 21 5.5 21 L 18.5 21 C 19.499994 21 20.293776 21.036708 20.972656 20.697266 C 21.312099 20.527545 21.602661 20.234831 21.769531 19.859375 C 21.9364 19.483919 22 19.041662 22 18.5 L 22 8.5 C 22 7.9583364 21.9364 7.51608 21.769531 7.140625 C 21.602661 6.76517 21.312099 6.4724546 20.972656 6.3027344 C 20.412813 6.022812 19.767331 5.9998521 19 6 L 19 5.5 C 19 4.9583364 18.9364 4.51608 18.769531 4.140625 C 18.602661 3.76517 18.312099 3.4724546 17.972656 3.3027344 C 17.293776 2.9632935 16.499994 3 15.5 3 L 8.5 3 C 8.2500013 3 8.0127565 2.99814 7.7871094 3 z M 8.5 4 L 15.5 4 C 16.499994 4 17.20623 4.0367082 17.527344 4.1972656 C 17.687901 4.2775445 17.772339 4.3598336 17.855469 4.546875 C 17.938599 4.7339164 18 5.0416696 18 5.5 L 18 10.595703 L 12 14.216797 L 6 10.59375 L 6 5.5 C 6 5.0416696 6.0614011 4.7339164 6.1445312 4.546875 C 6.2276612 4.3598336 6.3121001 4.2775437 6.4726562 4.1972656 C 6.7937689 4.0367095 7.500006 4 8.5 4 z M 8 6 L 8 7 L 16 7 L 16 6 L 8 6 z M 5 7.0058594 L 5 10.023438 L 4.6582031 10.546875 L 12 15.822266 L 19.34375 10.527344 L 19 10.017578 L 19 7.0058594 C 19.730454 7.0190305 20.264121 7.0656541 20.527344 7.1972656 C 20.687901 7.2775444 20.772339 7.3598336 20.855469 7.546875 C 20.938599 7.7339164 21 8.0416696 21 8.5 L 21 18.5 C 21 18.958332 20.9386 19.266083 20.855469 19.453125 C 20.772339 19.640167 20.687901 19.722454 20.527344 19.802734 C 20.20623 19.963289 19.499994 20 18.5 20 L 5.5 20 C 4.500006 20 3.7937689 19.96329 3.4726562 19.802734 C 3.3121001 19.722454 3.2276612 19.640167 3.1445312 19.453125 C 3.0614014 19.266083 3 18.958332 3 18.5 L 3 8.5 C 3 8.0416696 3.0614012 7.7339164 3.1445312 7.546875 C 3.2276612 7.3598336 3.3121001 7.2775437 3.4726562 7.1972656 C 3.7358779 7.065655 4.269546 7.0190307 5 7.0058594 z M 8 8 L 8 9 L 16 9 L 16 8 L 8 8 z M 8 10 L 8 11 L 13 11 L 13 10 L 8 10 z " />
</svg>

<svg height="24" width="24" xmlns="http://www.w3.org/2000/svg"><path style="fill:gray;stroke-width:1" d="M7.787 3c-.677.006-1.25.048-1.76.303-.34.17-.63.462-.797.838C5.064 4.516 5 4.958 5 5.5V6h-.213c-.677.006-1.25.048-1.76.303-.34.17-.63.462-.797.838C2.064 7.516 2 7.958 2 8.5v10c0 .542.064.984.23 1.36.167.375.458.668.797.837.51.255 1.083.297 1.76.303.226.002.463 0 .713 0h13c1 0 1.794.037 2.473-.303.34-.17.63-.462.797-.838.166-.375.23-.817.23-1.359v-10c0-.542-.064-.984-.23-1.36a1.72 1.72 0 0 0-.797-.837C20.413 6.023 19.767 6 19 6v-.5c0-.542-.064-.984-.23-1.36a1.72 1.72 0 0 0-.797-.837C17.293 2.963 16.5 3 15.5 3h-7c-.25 0-.487-.002-.713 0zM8.5 4h7c1 0 1.706.037 2.027.197.16.08.245.163.328.35.084.187.145.495.145.953v5.096l-6 3.62-6-3.622V5.5c0-.458.061-.766.145-.953a.615.615 0 0 1 .328-.35C6.793 4.037 7.5 4 8.5 4zM8 6v1h8V6H8zM5 7.006v3.017l-.342.524L12 15.822l7.344-5.295-.344-.51v-3.01c.73.013 1.264.06 1.527.191.16.08.245.163.328.35.084.187.145.495.145.953v10c0 .458-.061.766-.145.953a.615.615 0 0 1-.328.35c-.32.16-1.027.197-2.027.197h-13c-1 0-1.706-.037-2.027-.197a.615.615 0 0 1-.328-.35C3.06 19.266 3 18.958 3 18.5v-10c0-.458.061-.766.145-.953a.615.615 0 0 1 .328-.35c.263-.131.797-.178 1.527-.191zM8 8v1h8V8H8zm0 2v1h5v-1H8z"/></svg>
